REACT_GL/src/assets/LocationIcon.svg

<svg fill="none" height="56" viewBox="0 0 34 56" width="34" xmlns="http://www.w3.org/2000/svg"><g fill="#090909"><path d="m21.916 40.8157 9.5001-15.1122c.031-.0489.057-.1003.0773-.1536 1.6404-2.6465 2.5066-5.6699 2.5066-8.7565 0-9.25987-7.615-16.7934-16.975-16.7934-9.35997 0-16.9755774 7.53353-16.9755774 16.7934 0 3.0873.8674414 6.1118 2.5091774 8.7603.01901.0464.04119.0915.0678.1354l9.1591 15.1642c-7.10994.9942-11.7855 3.8865-11.7855 7.395 0 4.3473 7.46734 7.7517 16.9997 7.7517 9.5323 0 16.9997-3.4051 16.9997-7.7517.0006-3.5248-4.8929-6.4816-12.0834-7.4326zm-17.65103-16.1089c-1.51438-2.3845-2.31465-5.1207-2.31465-7.9134 0-8.22305 6.7621-14.91284 15.07468-14.91284 8.312 0 15.0741 6.68979 15.0741 14.91284 0 2.7939-.8003 5.5301-2.314 7.9134-.0317.0502-.0577.1022-.0786.1561l-10.0367 15.9641c-.1508.2288-.1806.2808-.365.5805l-2.5345 4.0319-12.42042-20.5633c-.02218-.0583-.0507-.1154-.08491-.1693zm12.73533 29.4126c-8.89806 0-15.09877-3.0947-15.09877-5.8711 0-2.5199 4.66985-4.8945 10.95107-5.6298l3.0858 5.1095c.1704.2815.4758.4551.8072.4576h.0082c.3283 0 .6337-.168.8073-.4438l3.2442-5.1602c6.3813.6839 11.2932 3.1186 11.2932 5.6667.0006 2.777-6.2001 5.8711-15.0982 5.8711z"/><path d="m23.1715 16.7937c0-3.3668-2.7689-6.1062-6.1722-6.1062-3.4032 0-6.1722 2.7394-6.1722 6.1062s2.769 6.1062 6.1722 6.1062c3.4033 0 6.1722-2.7394 6.1722-6.1062zm-10.4435 0c0-2.33 1.9161-4.2256 4.2713-4.2256 2.3553 0 4.2714 1.8956 4.2714 4.2256s-1.9155 4.2256-4.2714 4.2256c-2.3558 0-4.2713-1.8956-4.2713-4.2256z"/></g></svg>

<svg width="34" height="56" viewBox="0 0 34 56" fill="none" xmlns="http://www.w3.org/2000/svg">
<path d="M21.916 40.8157L31.4161 25.7035C31.4471 25.6546 31.4731 25.6032 31.4934 25.5499C33.1338 22.9034 34 19.88 34 16.7934C34 7.53353 26.385 0 17.025 0C7.66503 0 0.0494226 7.53353 0.0494226 16.7934C0.0494226 19.8807 0.916864 22.9052 2.5586 25.5537C2.57761 25.6001 2.59979 25.6452 2.6264 25.6891L11.7855 40.8533C4.67556 41.8475 0 44.7398 0 48.2483C0 52.5956 7.46734 56 16.9997 56C26.532 56 33.9994 52.5949 33.9994 48.2483C34 44.7235 29.1065 41.7667 21.916 40.8157ZM4.26497 24.7068C2.75059 22.3223 1.95032 19.5861 1.95032 16.7934C1.95032 8.57035 8.71242 1.88056 17.025 1.88056C25.337 1.88056 32.0991 8.57035 32.0991 16.7934C32.0991 19.5873 31.2988 22.3235 29.7851 24.7068C29.7534 24.757 29.7274 24.809 29.7065 24.8629L19.6698 40.827C19.519 41.0558 19.4892 41.1078 19.3048 41.4075L16.7703 45.4394L4.34988 24.8761C4.3277 24.8178 4.29918 24.7607 4.26497 24.7068ZM17.0003 54.1194C8.10224 54.1194 1.90153 51.0247 1.90153 48.2483C1.90153 45.7284 6.57138 43.3538 12.8526 42.6185L15.9384 47.728C16.1088 48.0095 16.4142 48.1831 16.7456 48.1856C16.7481 48.1856 16.7513 48.1856 16.7538 48.1856C17.0821 48.1856 17.3875 48.0176 17.5611 47.7418L20.8053 42.5816C27.1866 43.2655 32.0985 45.7002 32.0985 48.2483C32.0991 51.0253 25.8984 54.1194 17.0003 54.1194Z" fill="#090909"/>
<path d="M23.1715 16.7937C23.1715 13.4269 20.4026 10.6875 16.9993 10.6875C13.5961 10.6875 10.8271 13.4269 10.8271 16.7937C10.8271 20.1605 13.5961 22.8999 16.9993 22.8999C20.4026 22.8999 23.1715 20.1605 23.1715 16.7937ZM12.728 16.7937C12.728 14.4637 14.6441 12.5681 16.9993 12.5681C19.3546 12.5681 21.2707 14.4637 21.2707 16.7937C21.2707 19.1237 19.3552 21.0193 16.9993 21.0193C14.6435 21.0193 12.728 19.1237 12.728 16.7937Z" fill="#090909"/>
</svg>
